X:1
T:Title
%%score { ( 1 4 5 ) | ( 2 3 ) }
L:1/8
Q:1/4=112
M:4/4
K:Ab
V:1 treble nm="Grand Piano"
V:4 treble 
V:5 treble 
V:2 bass 
V:3 bass 
V:1
 [EAc]3 [Ac] [EAc]2 [DGB]2 | [A,CEA]2 E2 A2 c2 | [Ae]2 [FAf]2 [Ae]2 [FAf]2 | %3
w: Sameul~W.~Beazley * * *|||
 [Ee]2- [E_G=Ae]2 [E=GBe]4 | [Ec]3 [Ec] [Ec]2 [DB]2 | [CA]2 [CE]6 | [A,C]3 [B,D] [CE]2 [DF]2 | %7
w: ||||
 [CE]6[K:bass] z2 | d3 d d2 c2 | B2 G6 | E6 z2 | A,4 (3z E-[EF] (3GAB | [Ec]3 [Ec] [Ec]2 [DB]2 | %13
w: ||||||
 [CA]2 [CE]6 | [A,C]3 [B,D] [CE]2 [B,C=E]2 | [A,CF]6[K:bass] z2 | A3 A A2 B2 | c2 [Ee]6 | %18
w: |||||
 [Fd]3 [DB] [CA]2 [B,DG]2 | [A,CA]6 z2 | [Ec]4 [Ec]3 _c | [Ec]6 z2 | z4 [CF]4[K:bass] | [DG]6 z2 | %24
w: ||||||
 [Gd]4 [Gd]4 | [Gd]6 z2 | [EG]4 [DF]4 | [A,CE]6 z2 | [Ec]4 [Ec]3 _c | [Ec]6 z2 | [DF]4 [EF]4 | %31
w: |||||||
 [Fd]6 z2 | [Fd]3 [Fc] [FB]2 [FA]2 | [EA]2 [Ae]4 [Af]2 | [CAc]3 [CEA] [DGB]3 [DEG] | [CEA]6 z2 |] %36
w: |||||
V:2
 [A,,A,]2 z E [A,,A,]2 E,2 | A,,2 C2 C2 E2 | [E,CE]2 [=D,_C]2 [E,=CE]2 [D,_C]2 | %3
 [E,C]2 [E,=A,C]2 [E,B,D]2 [E,,E,]2 | [A,,A,]3 [A,,A,] [A,,A,]2 [A,,E,]2 | [A,,E,]2 [A,,A,]6 | %6
 [A,,E,]3 [A,,E,] [A,,A,]2 [A,,A,]2 | [A,,A,]6 z2 | [E,G,E]3 [E,G,E] [E,G,E]2 [E,A,E]2 | %9
 [E,G,D]2 [E,B,D]6 | D2- [E,D-]2 DD z G, | z2 E,2 A,2 z2 | [A,,A,]3 [A,,A,] [A,,A,]2 [A,,E,]2 | %13
 [A,,E,]2 [A,,A,]6 | [A,,E,]3 [A,,E,] [A,,A,]2 [G,,G,]2 | [F,,F,]6 z2 | %16
 [F,A,C]3 [F,A,C] [F,A,C]2 [E,G,E]2 | [A,E]2 [C,A,]6 | [D,A,]3 [D,F,] E,2 E,2 | z2 E,2 A,,2 z2 | %20
 A,2 A,2 A,2 z =D | A,2 A,2 z D [A,,E,]2 | [A,,A,]2 [A,,A,]2 [A,,E,]2 z2 | [B,,E,]2 B,,2 B,,2 z2 | %24
 [E,B,]2 z2 [E,B,]2 z _G | [E,B,]2 E,2 z A [E,B,]2 | [E,B,]2 F,2 G,2 E,2 | %27
 z4 (3z[K:treble] E-[EF] (3GAB | A,2 A,2 A,2 z =D | A,2 A,2 z E [C,A,]2 | [D,A,]2 D,2 C,2 C,2 | %31
 [B,,B,]2 B,,2 B,,2 z2 | [B,,B,]3 [C,=A,] [D,B,]2 [=D,_C]2 | [E,C]2 [E,C]4 [=D,_C]2 | %34
 E,3 E, E,3 E, | A,,6 z2 |] %36
V:3
 z2 E,2 z4 | x8 | x8 | x8 | x8 | x8 | x8 | x8 | x8 | x8 | [E,G,]2 z2 E,2 E,2 | A,,6 z2 | x8 | x8 | %14
 x8 | x8 | x8 | x8 | x8 | A,,4 z4 | z4 z2 A,2 | z4 A,,2 z2 | x8 | x8 | z4 z2 E,2 | z4 E,2 z2 | x8 | %27
 A,,6[K:treble] z2 | z4 z2 A,2 | z4 A,,2 z2 | x8 | x8 | x8 | x8 | x8 | x8 |] %36
V:4
 x8 | x8 | x8 | A2 z2 z4 | x8 | x8 | x8 | z2[K:bass] C,2 E,2 A,2 | x8 | x8 | z2 G,2 z F[B,DG][DF] | %11
 [CE]6 z2 | x8 | x8 | x8 | z2[K:bass] C,2 A,,2 F,,2 | x8 | x8 | x8 | x8 | x8 | z4 z B[CA][CF] | %22
 [CE]4 z2[K:bass] [A,,E,]2 | z2 E,2 E,2 z2 | z2 [E,B,]2 z2 z c | z2 B,2 z c[GB][FA] | %26
 z2 B,2 B,2 G,2 | x8 | x8 | z4 z B[EA][EG] | z2 A,2 =A,2 A,2 | z2 B,2 B,2 z2 | x8 | x8 | x8 | x8 |] %36
V:5
 x8 | x8 | x8 | x8 | x8 | x8 | x8 | x2[K:bass] x6 | x8 | x8 | z4 G,2 z2 | x8 | x8 | x8 | x8 | %15
 x2[K:bass] x6 | x8 | x8 | x8 | x8 | x8 | z4 A,2 z2 | x6[K:bass] x2 | x8 | z4 z2 B,2 | z4 B,2 z2 | %26
 x8 | x8 | x8 | z4 A,2 z2 | x8 | x8 | x8 | x8 | x8 | x8 |] %36

